svgs/sharp-solid/headset.svg

<svg xmlns="http://www.w3.org/2000/svg" viewBox="0 0 512 512"><!--! Font Awesome Pro 6.6.0 by @fontawesome - https://fontawesome.com License - https://fontawesome.com/license (Commercial License) Copyright 2024 Fonticons, Inc. --><path d="M256 48C141.1 48 48 141.1 48 256l0 40 0 24L0 320l0-24 0-40C0 114.6 114.6 0 256 0S512 114.6 512 256l0 208.1 0 24-24 0L320 488l0 24-80 0c-26.5 0-48-21.5-48-48s21.5-48 48-48l80 0 0 24 144 .1L464 256c0-114.9-93.1-208-208-208zM192 224l0 160L80 384l0-160 112 0zm240 0l0 160-112 0 0-160 112 0z"/></svg>

<svg xmlns="http://www.w3.org/2000/svg" viewBox="0 0 512 512"><!--! Font Awesome Pro 6.5.2 by @fontawesome - https://fontawesome.com License - https://fontawesome.com/license (Commercial License) Copyright 2024 Fonticons, Inc. --><path d="M256 48C141.1 48 48 141.1 48 256v40 24H0V296 256C0 114.6 114.6 0 256 0S512 114.6 512 256V464.1v24l-24 0L320 488v24H240c-26.5 0-48-21.5-48-48s21.5-48 48-48h80v24l144 .1V256c0-114.9-93.1-208-208-208zM192 224V384H80V224H192zm240 0V384H320V224H432z"/></svg>
